X:16810
T:The Harbour/Harper Jig
R:Jig
S:
H:
N:
D:Cherish The Ladies
Z:Adrian Scahill
M:6/8
L:1/8
K:G
B3 GDB,|G,B,D GBd|c3 cBA|cBA Bcd|\
B3 GDB,|G,B,D GBd|c3 gce|cAF G2A:||
Bdg gfe|fag fed|B3 AFA|cAG FGA|\
Bdg gfe|faf g2a|bge dcB|cAB cBA:||


